markets/CAD.svg

<svg width="42" height="42" viewBox="0 0 42 42" fill="none" xmlns="http://www.w3.org/2000/svg">
<circle cx="21" cy="21" r="21" fill="#06061B"/>
<path d="M15.1155 28.4572C14.28 28.4572 13.4925 28.334 12.753 28.0874C12.0271 27.8272 11.3766 27.4095 10.8013 26.8343C10.0207 26.0399 9.48656 25.1497 9.19896 24.1636C8.92504 23.1775 8.78809 22.0819 8.78809 20.8767C8.78809 19.6715 8.92504 18.5827 9.19896 17.6103C9.48656 16.6242 10.0275 15.734 10.8219 14.9396C11.3971 14.3644 12.0477 13.9535 12.7735 13.707C13.5131 13.4468 14.2937 13.3167 15.1155 13.3167C15.8961 13.3167 16.622 13.4468 17.2931 13.707C17.9642 13.9535 18.5531 14.3096 19.0598 14.7753C19.5666 15.2409 19.9706 15.7956 20.2719 16.4393C20.5732 17.0693 20.7512 17.7678 20.806 18.5347H18.0943C18.0258 17.6445 17.7245 16.9529 17.1904 16.4598C16.6562 15.9668 15.9372 15.7203 15.0333 15.7203C14.5677 15.7203 14.1294 15.8024 13.7185 15.9668C13.3077 16.1311 12.9584 16.3708 12.6708 16.6858C12.1915 17.2062 11.8696 17.802 11.7053 18.4731C11.5546 19.1442 11.4793 19.9454 11.4793 20.8767C11.4793 21.808 11.5546 22.616 11.7053 23.3008C11.8696 23.9719 12.1915 24.5677 12.6708 25.0881C13.2734 25.7318 14.0609 26.0536 15.0333 26.0536C15.8961 26.0536 16.5946 25.814 17.1287 25.3346C17.6629 24.8416 17.9847 24.1568 18.0943 23.2803H20.806C20.7238 24.0746 20.5184 24.7936 20.1897 25.4373C19.8747 26.0673 19.4638 26.6083 18.9571 27.0603C18.4504 27.5122 17.8683 27.8615 17.2109 28.108C16.5535 28.3408 15.855 28.4572 15.1155 28.4572Z" fill="white"/>
<path d="M27.1132 28.108C26.4284 28.0532 25.7847 27.9025 25.1821 27.656C24.5795 27.3958 24.0591 27.0603 23.6208 26.6494C23.1825 26.2385 22.8333 25.766 22.5731 25.2319C22.3129 24.6978 22.1759 24.1157 22.1622 23.4857H24.6891C24.7165 24.1568 24.9493 24.7183 25.3875 25.1703C25.8395 25.6085 26.4147 25.8619 27.1132 25.9304V21.8628L26.1476 21.719C25.0383 21.5683 24.1549 21.1506 23.4975 20.4658C22.8538 19.781 22.532 18.9113 22.532 17.8568C22.532 17.309 22.6553 16.7954 22.9018 16.316C23.1483 15.823 23.4838 15.3916 23.9084 15.0218C24.333 14.6383 24.8192 14.3302 25.367 14.0973C25.9285 13.8645 26.5106 13.7207 27.1132 13.6659V11.7554H28.6129V13.707C29.2292 13.7892 29.7975 13.9535 30.318 14.2C30.8384 14.4329 31.2904 14.7342 31.6738 15.104C32.0573 15.4737 32.3586 15.8983 32.5778 16.3777C32.8106 16.857 32.9407 17.3706 32.9681 17.9184H30.4412C30.4138 17.4254 30.229 17.0008 29.8866 16.6447C29.5579 16.2749 29.1333 16.0216 28.6129 15.8846V19.6441L29.3113 19.7468C29.8318 19.829 30.3248 19.9728 30.7905 20.1782C31.2561 20.3836 31.6601 20.6507 32.0025 20.9794C32.3586 21.3081 32.6325 21.7053 32.8243 22.1709C33.0297 22.6229 33.1324 23.1365 33.1324 23.7117C33.1324 24.328 33.016 24.8895 32.7832 25.3962C32.5641 25.8893 32.2491 26.3275 31.8382 26.711C31.441 27.0808 30.9617 27.389 30.4001 27.6355C29.8523 27.8683 29.2566 28.019 28.6129 28.0874V30.2034H27.1132V28.108ZM28.6129 25.9098C29.2566 25.8003 29.7565 25.5674 30.1125 25.2114C30.4686 24.8416 30.6467 24.3759 30.6467 23.8144C30.6467 23.294 30.4755 22.9105 30.1331 22.664C29.7907 22.4037 29.4004 22.2325 28.9621 22.1504L28.6129 22.0887V25.9098ZM27.1132 15.823C26.538 15.9052 26.0449 16.1174 25.6341 16.4598C25.2369 16.7885 25.0383 17.2336 25.0383 17.7952C25.0383 18.2745 25.1684 18.6374 25.4286 18.884C25.7025 19.1168 26.0586 19.2674 26.4969 19.3359L27.1132 19.4386V15.823Z" fill="white"/>
</svg>

<svg xmlns="http://www.w3.org/2000/svg" width="42" height="42" fill="none"><circle cx="21" cy="21" r="21" fill="#06061B"/><path fill="#fff" d="M15.116 28.457a7.42 7.42 0 0 1-2.363-.37 5.24 5.24 0 0 1-1.952-1.253c-.78-.794-1.314-1.684-1.602-2.67-.274-.987-.41-2.082-.41-3.287s.136-2.294.41-3.267c.288-.986.829-1.876 1.623-2.67a5.022 5.022 0 0 1 1.952-1.233c.74-.26 1.52-.39 2.342-.39.78 0 1.506.13 2.177.39.671.246 1.26.603 1.767 1.068.507.466.91 1.02 1.212 1.664.301.63.48 1.329.534 2.096h-2.712c-.068-.89-.37-1.582-.904-2.075-.534-.493-1.253-.74-2.157-.74-.465 0-.904.082-1.314.247a2.81 2.81 0 0 0-1.048.719 4.01 4.01 0 0 0-.966 1.787c-.15.671-.226 1.472-.226 2.404 0 .931.076 1.739.226 2.424a4.01 4.01 0 0 0 .966 1.787c.602.644 1.39.966 2.362.966.863 0 1.562-.24 2.096-.72.534-.492.856-1.177.965-2.054h2.712a6.074 6.074 0 0 1-.616 2.157 5.367 5.367 0 0 1-2.98 2.671 6.231 6.231 0 0 1-2.095.35ZM27.113 28.108a6.421 6.421 0 0 1-1.93-.452 5.37 5.37 0 0 1-1.562-1.007 4.825 4.825 0 0 1-1.048-1.417 4.144 4.144 0 0 1-.41-1.746h2.526c.027.67.26 1.232.698 1.684.453.438 1.028.692 1.726.76v-4.067l-.965-.144c-1.11-.15-1.993-.568-2.65-1.253-.644-.685-.966-1.555-.966-2.61 0-.547.123-1.06.37-1.54a4.185 4.185 0 0 1 1.006-1.294c.425-.384.911-.692 1.459-.925a5.938 5.938 0 0 1 1.746-.431v-1.91h1.5v1.951a5.726 5.726 0 0 1 1.705.493c.52.233.972.534 1.356.904.383.37.685.794.904 1.274.233.479.363.993.39 1.54h-2.527a1.937 1.937 0 0 0-.554-1.273 2.514 2.514 0 0 0-1.274-.76v3.76l.698.102c.52.082 1.014.226 1.48.431.465.206.87.473 1.211.801.357.33.63.726.822 1.192.206.452.308.966.308 1.54a4.018 4.018 0 0 1-1.294 3 5.09 5.09 0 0 1-1.438.924 6.225 6.225 0 0 1-1.787.452v2.116h-1.5v-2.095Zm1.5-2.198c.644-.11 1.143-.343 1.5-.699.356-.37.534-.835.534-1.397 0-.52-.171-.904-.514-1.15a2.74 2.74 0 0 0-1.17-.514l-.35-.061v3.82Zm-1.5-10.087a2.9 2.9 0 0 0-1.479.637c-.397.328-.596.774-.596 1.335 0 .48.13.842.39 1.089.274.233.63.383 1.069.452l.616.103v-3.616Z"/></svg>
